X:1
T:6 Lieder, Op.1
T:Schwanenlied
T:6 Lieder, Op.1
T:1. Schwanenlied
T:Fanny (Mendelssohn) Hensel
T:Heinrich Heine
T:OpenScore (CC0)
T:OpenScore (CC0)
T:OpenScore (CC0)
T:OpenScore (CC0)
T:OpenScore (CC0)
C:Fanny (Mendelssohn) Hensel
Z:Heinrich Heine
Z:OpenScore (CC0)
%%score 1 { 2 | 3 }
L:1/8
Q:1/4=80
M:6/8
K:Bb
V:1 treble nm="Gesang\nVoice"
V:2 treble nm="Piano"
V:3 bass 
V:1
"^Andante"!mp! z2 z z2 D | d2 B G2 A | (B2 c) d2 z |!<(! G ^F G e!<)! c A | ^F3 z2!p! D | %5
w: Es|fällt ein Stern her-|un- * ter|aus sei- ner fun- keln- den|Höh, das|
 EG B e2 ^c | d3 ^G3 | A ^G A[Q:1/4=77]"^poco ritard." f2[Q:1/4=74] =e | %8
w: ist * der Stern der|Lie- be,|den ich dort fal- len|
[Q:1/4=70] d3[Q:1/4=80]"^a Tempo" z2 d | d c =B"^cresc." c2 G | (^F2 G) A2 d | dc =B c G _B | %12
w: seh. Es|fal- len von A- pfel-|bau- * me, der|wei- * ssen Blät- ter so|
 A2 z z2!f! D | d B A G ^F G | (B2 A) G2 G | d B"^dim." A G^F G | c2 z z2"^cresc." G | %17
w: viel, es|kom- men die ne- cken- den|Lüf- * te, und|trei- ben da- mit * ihr|Spiel, es|
 B A G d B G |!f! (g2 e) d2 ^c |!<(! (dBc!<)!!>(! d3-!>)! |!<(! dBc!<)! d3- | %21
w: kom- men die ne- cken- den|Lüf- * te, und|trei- * * *||
!>(! d3-!>)! d!p! G) A | B3- Bc ^F | G3 z2 z | z6 | z6 | z2 z z2 D | d2 B G2 A | (B2 c) d2 z | %29
w: * * ben da-|mit * * ihr|Spiel.|||Es|singt der Schwan im|Wei- * her,|
 G ^F G ec A | ^F2 z z2!pp! D | EG B e2 ^c | d3 ^G3 |[Q:1/4=75]"^ritard." A ^G[Q:1/4=70] A f2 =e | %34
w: und ru- dert auf * und|ab, und|im- * mer lei- ser|sin- gend,|taucht er ins Flu- then-|
 d6- | !fermata!d2 z z2 d |[Q:1/4=80]"^a Tempo" dc =B c2 G | (^F2 G) A2 d | dc =B"^cresc." cG _B | %39
w: grab.|* Es|ist * so still und|dun- * kel, ver-|weht * ist Blatt * und|
 A2 z z2!f! D | d2 B G ^F G | B2 A G2"^dim." G | d B A G^F G | c2 z z2 G | B"^cresc."A G d B G | %45
w: Blüth', der|Stern ist knis- ternd zer-|sto- * ben, ver-|klun- gen das Schwa- * nen-|lied der|Stern * ist knis- ternd zer-|
!f! (g2 e)"^dim." d2 ^c |!<(! dBc!<)!!<(! d3-!<)! |!<(! dBc!<)! d3- |!>(! d3-!>)! d G!p! A | %49
w: sto- * ben, ver-|klun- * * *||* * gen das|
!pp! B3- Bc ^F | G6 | z6 | z6 | !fermata!z6 |] %54
w: Schwa- * * nen-|lied.||||
V:2
!ped! z B,/D/B/G/ z B,/D/B/G/ | z B,/D/B/G/ z!ped-up!!ped! C/E/c/A/ | %2
 z!ped-up!!ped! B,/D/B/G/ z!ped-up!!ped! A,/D/A/F/ | %3
!ped! z!ped-up! G,/C/G/E/ z!ped-up!!ped! E/G/e/c/ | %4
 z!ped! D/^F/d/A/!p! z!ped-up!!ped! A,/D/A/^F/!ped-up! | z!ped! B,/E/B/E/ z B,/E/B/E/!ped-up! | %6
 z!ped! B,/D/B/F/ z B,/D/B/F/!ped-up! | z!ped! D/F/d/A/ z!ped-up!!ped! ^C/=G/^c/A/!ped-up! | %8
 z!ped! D/^F/d/A/ z A,/D/A/F/!ped-up! | z!ped! C/E/c/G/ z E/G/e/c/!ped-up! | %10
 z!ped! D/^F/d/A/ z A,/D/A/F/!ped-up! | z C/"_cresc."E/c/G/ z C/G/c/_B/ | z C/F/c/A/ z C/D/c/A/ | %13
!f! z B,/D/B/G/ z C/E/B/G/ | z B,/D/B/G/ z C/E/B/G/ | z B,/D/"_dim."B/G/ z =B,/D/=B/G/ | %16
 z C/=E/c/G/ z ^C/"_cresc."G/^c/B/ | z D/G/d/B/ z B,/D/B/G/ | z G,/C/G/E/ z B,/D/B/G/ | %19
 z!<(! B,/D/B/G/ z C/D/c/!<)!^F/ | z!<(! B,/D/B/G/ z A,/D/!<)!A/^F/ | %21
!>(! z G,/"_dim."D/G/=F/!>)! z G,/C/G/^C/ |!p! z B,/D/B/G/ z C/D/c/^F/ | %23
 z =B,/D/=B/!p!G/!<(! z A,/C/A/G/!<)! | z!p! =B,/D/=B/G/!<(! z A,/C/A/G/!<)! | %25
!ped! z!p! =B,/D/=B/G/ D/B,/d/B/G/D/!ped-up! | g6 |!p! z B,/D/B/G/ z C/E/c/A/ | %28
 z B,/D/B/G/ z A,/D/A/F/ | z G,/C/G/E/ z E/G/e/c/ | z D/^F/d/A/!pp! z A,/D/A/^F/ | %31
 z B,/E/B/G/ z B,/E/B/G/ | z B,/D/B/F/ z B,/D/B/F/ | z D/F/d/A/ z ^C/G/!pp!^c/A/ | %34
!ped! z2 z A/^c/d/^f/a/^c'/!ped-up! | !fermata!d'2 z z2 z |!p! z C/E/c/G/ z E/G/e/c/ | %37
 z D/^F/d/A/ z A,/D/A/F/ | z C/E/c/G/ z C/"_cresc."G/c/B/ | z C/F/c/A/ z C/D/c/A/ | %40
 z B,/D/B/G/ z C/E/B/G/ | z B,/D/B/G/ z C/E/B/G/ | z B,/D/B/G/ z B,/D/=B/G/ | %43
 z C/=E/c/G/ z ^C/G/^c/B/ | z D/G/d/B/ z B,/D/B/G/ | z G,/C/G/E/ z B,/D/B/G/ | %46
!<(! z B,/D/B/G/ z C/D/c/!<)!^F/ |!<(! z B,/D/B/G/ z A,/D/A/!<)!^F/ | %48
 z!>(! G,/"_dim."D/G/=F/ z G,/C/G/!>)!^C/ |!pp! z B,/D/B/G/ z C/D/c/A/ | %50
!p! z =B,/D/=B/G/!<(! z A,/C/A/!<)!G/ |!p! z =B,/D/=B/G/!<(! z A,/C/A/G/!<)! | %52
!p!!ped! z =B,/D/=B/G/ D/B,/d/B/G/D/!ped-up! | !fermata!g6 |] %54
V:3
 (G,,/D,/-"^tutto legato" [G,,D,]2) (G,,/D,/- [G,,D,]2) | (G,,/D,/- [G,,D,]2) (G,,/E,/- [G,,E,]2) | %2
 (G,,/D,/- [G,,D,]2) (F,,/D,/- [F,,D,]2) | (E,,/E,/- [E,,E,]2) (C,/A,/- [C,A,]2) | %4
 (D,/A,/- [D,A,]2) (C,/^F,/- [C,F,]2) | (B,,/G,/- [B,,G,]2) (B,,/G,/- [B,,G,]2) | %6
 (B,,/F,/- [B,,F,]2) (B,,/F,/- [B,,F,]2) | (A,,/F,/- [A,,F,]2) (A,,/A,/-"^poco ritard." [A,,A,]2) | %8
 (D,/A,/- [D,A,]2) D,,/^F,/- F,2 | E,,/G,/- G,2 (C,/A,/- [C,A,]2) | %10
 (D,/A,/- [D,A,]2) D,,/^F,/- F,2 | E,,/G,/- G,2 =E,,/G,/- G,2 | F,,/A,/- A,2 ^F,,/A,/- A,2 | %13
 (G,,/D,/- [G,,D,]2) (G,,/E,/- [G,,E,]2) | (G,,/D,/- [G,,D,]2) (G,,/E,/- [G,,E,]2) | %15
 (G,,/D,/- [G,,D,]2) (F,/G,/- [F,G,]2) | (=E,/G,/-) [E,G,]2 (_E,/B,/- [E,B,]2) | %17
 (D,/B,/- [D,B,]2) D,,/G,/- G,2 | C,,/E,/- E,2 D,,/G,/- G,E,, | D,,/G,/- G,2 (D,/A,/- [D,A,]2) | %20
 D,,/G,/- G,2 (C,/^F,/- [C,F,]2) | (=B,,/=F,/-) [B,,F,]2 C,/=E,/- E,_E, | %22
 (D,/G,/- [D,G,]2) D,,/A,/- A,2 | (G,,/D,/- [G,,D,]2) (G,,/E,/- [G,,E,]2) | %24
 (G,,/D,/- [G,,D,]2) (G,,/E,/- [G,,E,]2) | (G,,/D,/- [G,,D,]2-) [G,,D,]3- | [G,,D,]6 | %27
 (G,,/D,/- [G,,D,]2) (G,,/E,/- [G,,E,]2) | (G,,/D,/- [G,,D,]2) (F,,/D,/- [F,,D,]2) | %29
 E,,/E,/- E,2 (C,/A,/- [C,A,]2) | (D,/A,/- [D,A,]2) (C,/^F,/- [C,F,]2) | %31
 (B,,/G,/- [B,,G,]2) (B,,/G,/- [B,,G,]2) | (B,,/F,/- [B,,F,]2) (B,,/F,/- [B,,F,]2) | %33
 (A,,/F,/-"^ritard.         e" [A,,F,]2) (A,,/A,/- [A,,A,]2) | D,,/D,/^F,/A,/D/^F/ z2 z | %35
 !fermata!z2 z z2 z | E,,/G,/- G,2 (C,/A,/- [C,A,]2) | (D,/A,/- [D,A,]2) D,,/^F,/- F,2 | %38
 E,,/G,/- G,2 =E,,/G,/- G,2 | F,,/A,/- A,2 ^F,,/A,/- A,2 | %40
 (G,,/D,/- [G,,D,]2) (G,,/E,/- [G,,E,]2) | (G,,/D,/- [G,,D,]2) (G,,/E,/- [G,,E,]2) | %42
 (G,,/D,/- [G,,D,]2) F,/G,/- [F,G,]2 | (=E,/G,/- [E,G,]2) (_E,/B,/- [E,B,]2) | %44
 (D,/B,/- [D,B,]2) D,,/G,/- G,2 | C,,/E,/- E,2 D,,/G,/- G,E,, | D,,/G,/- G,2 (D,/A,/- [D,A,]2) | %47
 D,,/G,/- G,2 (C,/^F,/- [C,F,]2) | (=B,,/=F,/- [B,,F,]2) C,/=E,/- E,_E, | %49
 (D,/G,/- [D,G,]2) D,,/A,/ A,2 | (G,,/D,/- [G,,D,]2) (G,,/E,/- [G,,E,]2) | %51
 (G,,/D,/- [G,,D,]2) (G,,/E,/- [G,,E,]2) | (G,,/D,/- [G,,D,]2-) [G,,D,]3- | !fermata![G,,D,]6 |] %54

